X:34
T:E-mail Reply
M:C|
L:1/8
C: Paul Gitlitz 2001
R:Reel
B:Hunters and Gaterers
K:E
"E"B3c BAGF|GBef g3e|"A"aege "F#m"fedc|"B"defd BAGF|!
"E"GBef "(C#m)"ecBA|"E"GBeg "B"b3g|"A"afga "F#m"fedc|"B"defd "E"e4:|! 
|"E"gage gbge|Bege "F#m"f3e|"C#m"cBAc "D#m"dBcd|"E"edeg "B"f4|!
"E"gage gbge|Bege "B"b3g|"A"afga "F#m"fedc|1"B"defd "E"e4:|2"B"BAGF "E"E4|]
